cdn/fa/svgs/sharp-thin/arrow-down-to-bracket.svg

<svg xmlns="http://www.w3.org/2000/svg" viewBox="0 0 448 512"><!--! Font Awesome Pro 6.5.2 by @fontawesome - https://fontawesome.com License - https://fontawesome.com/license (Commercial License) Copyright 2024 Fonticons, Inc. --><path d="M229.7 349.7l-5.7 5.7-5.7-5.7-136-136L76.7 208 88 196.7l5.7 5.7L216 324.7 216 8l0-8 16 0 0 8 0 316.7L354.3 202.3l5.7-5.7L371.3 208l-5.7 5.7-136 136zM16 328l0 168 416 0 0-168 0-8 16 0 0 8 0 176 0 8-8 0L8 512l-8 0 0-8L0 328l0-8 16 0 0 8z"/></svg>

<svg xmlns="http://www.w3.org/2000/svg" viewBox="0 0 448 512"><!--! Font Awesome Pro 6.5.1 by @fontawesome - https://fontawesome.com License - https://fontawesome.com/license (Commercial License) Copyright 2023 Fonticons, Inc. --><path d="M229.7 349.7l-5.7 5.7-5.7-5.7-136-136L76.7 208 88 196.7l5.7 5.7L216 324.7V8 0h16V8 324.7L354.3 202.3l5.7-5.7L371.3 208l-5.7 5.7-136 136zM16 328V496H432V328v-8h16v8V504v8h-8H8 0v-8V328v-8H16v8z"/></svg>
